!!!OTL: Jaegers Heil.
!!!OTL-incipit: ES RITT EIN JAEGERSMANN
!!!COM: J. F. Reichardt
!!!ARE: Europa, Mitteleuropa, Deutschland
!!!SCT: F0620
!!!TXL: @@DE
!!!YEM: Copyright 1995, estate of Helmut Schaffrath.
**kern	**text
*ICvox	*
*M6/8	*
*k[f#c#g#d#]	*
*E:	*
!LO:TX:a:t=Rasch und belebt.	!
!LO:TX:a:t=Ges. v. Langer	!
{8b/	Es
=1	=1
4b/	ritt
8g#	ein
8.b/	Jä-
16a	-gers-
8g#	-mann
=2	=2
8f#	ü-
8f#	-ber
8f#	die
4g#}	Flur
{8b/	hin-
=3	=3
4ee/	-ab_in
8b/	den
4g#	dun-
8e	-keln
=4	=4
[4.b/	Wald
8b/]	.
8r}	.
{8b/	er
=5	=5
4b/	folg-
8g#	-te
8.b/	kun-
16a	-dig
8g#	des
=6	=6
8f#	Wil-
8f#	.
8f#	-des
4g#}	Spur,
{8b/	ſeine
=7	=7
4ee/	Beu-
8b/	-te
4g#	wurde
8e	es
=8	=8
[4.b/	bald.
8b/]	.
8r}	.
{8b/	Drauf
=9	=9
8b/	kehrt'
8f#	er
8b/	nach
8bL	Haus
8g#J	.
8b/	mit
=10	=10
8bL	Jagd-
8aJ	.
8g#	-ge-
4f#}	-ſang,
{8b/	mit
=11	=11
8b/	lau-
8f#	.
8b/	-tem
8bL	fröh-
8g#J	-li-
8b/	-chem
=12	=12
8bL	Hör-
8aJ	.
8g#	-ner-
4f#}	-klang
{8e	Tra-
=13	=13
4e	-rah,
8g#	tra-
4g#	-rah,
8b/	tra-
=14	=14
[4.b/	-rah!
4b/]}	.
{8b/	Ʒum
=15	=15
8b/L	Lieb-
8eeJ	.
8b/	-chen
8aL	kehrt
8g#J	.
8f#	er
=16	=16
(4.b/	heim,
8ee/)	.
8r}	.
{8b/	ʒum
=17	=17
8b/L	Lieb-
8eeJ	.
8b/	-chen
8aL	kehrt
8g#J	.
8f#	er
=18	=18
[4.e	heim.
8e]	.
8r}	.
==	==
!!!AGN: Staende -, Jaeger - Lied
!!!ONB: ESAC (Essen Associative Code) Database: FINK
!!!AMT: compound duple
!!!AIN: vox
!!!EED: Helmut Schaffrath
!!!EEV: 1.0
!!!GTL: Soldaten- und Jaegerlieder
!!!source: Musikalischer Hausschatz der Deutschen. Eine Sammlung von über 1000 Liedern und Gesängen mit Singstimmen und Klavierbegleitung. Leipzig, Litterarisches Verlags-Haus.
!!!page: 406
!!!ENC: Anna Maria Matuszewska
!!!EEV: 2025/03/18
*-	*-
